X:1
T:Light in the Valley
T:H. W. Lowing, 1898
T:Light in the Valley
T:Public Domain
T:Public Domain
T:Public Domain
C:H. W. Lowing, 1898
Z:Public Domain
%%score ( 1 2 ) ( 3 4 )
L:1/8
M:4/4
K:Db
V:1 treble 
V:2 treble 
V:3 bass 
V:4 bass 
V:1
 D>E | (z2 D>D F>E) D>[DB] | [DA]<([DA-] DE F<F) F2 | (z2 D2 D2) D2 | (z2 C2 C2) D>E | %5
w: ~ ~|* * * * ~ ~|~ ~ * * * * ~|* * ~|* * ~ ~|
w: There’s a|* * * * light in|ley For * * * * me,|* * for|* * There’s a|
w: ~ ~|* * * * ~ ~|~ ~ * * * * ~|* * ~|* * ~ ~|
w: ~ ~|* * * * ~ ~|~ ~ * * * * ~|* * ~|* * ~ ~|
 z2 D>D F>E D>[DB] | [DA]<([DA-] DE F<F) D2 | (z2 C2 C2) F2 | z2 B,2 A,2 || A2 | %10
w: * * * * ~ ~|~ ~ * * * * ~|* * ~|||
w: * * * * in the|For me, * * * * for|* * me.|||
w: * * * * ~ ~|~ ~ * * * * ~|* * ~|||
w: * * * * ~ ~|~ ~ * * * * ~|* * ~|||
 (z2 F2) [Fd]>[FA] [GB]>[Gd] | F>F F>F (D>D) A2 | (z2 F2 F2) d2 | z2 G2 G2 A2 | %14
w: * sus, come and res-|* * * * * * Poor|* * me;|* * Je-|
w: * iot of sal- va-|* * * * * * Take|* * me;|* * char-|
w: * ther, come to Je-|* * * * * * Come|* * now;|* * bro-|
w: * sus wants to save|* * * * * * Just|* * now;|* * Je-|
 z2 F2 [Fd]>[FA] [GB]>[Gd] | F>F F>F D>D D2 | (z2 C2 C2) F2 | z2 B,2 A,2 ||"^Refrain" D>E | %19
w: * come and res- cue|* * * * * me, yes,|* * a||* the|
w: * of sal- va- tion,|* * * * * me, yes|* * a||* the|
w: * come to Je- sus,|* * * * * now, just|* * a||* the|
w: * wants to save you|* * * * * now, yes|* * a||* the|
 (z2 D>D F>E) D>[DB] | [DA]<([DA-] DE F<F) F2 | (z2 D2 D2) D2 | (z2 C2 C2) D>E | %23
w: * * * * val- ley|for me; * * * * There’s|* * a|* * in the|
w: * * * * val- ley|for me; * * * * There’s|* * a|* * in the|
w: * * * * val- ley|for you; * * * * There’s|* * a|* * in the|
w: * * * * val- ley|for you; * * * * There’s|* * a|* * in the|
 z2 D>D F>E D>[DB] | [DA]<([DA-] DE F<F) D2 | (z2 C2 C2) F2 | z2 B,2 A,2 || %27
w: * * * * ley For|me. * * * * * *|||
w: * * * * ley For|me. * * * * * *|||
w: * * * * ley For|you. * * * * * *|||
w: * * * * ley For|you. * * * * * *|||
V:2
 x2 | (F4- D2) D3/2 x/ | x2 A4 x2 | F4 x4 | E4 x4 | (F4- D2) D3/2 x/ | x2 A4 x2 | E6 x2 | D4 x2 || %9
w: |~ * ~||~|~|~ * ~||O|Je-|
w: |the * val-||me;|light|val- * ley||Great|char-|
w: |~ * ~||~|~|~ * ~||O|bro-|
w: |~ * ~||~|~|~ * ~||For|Je-|
 x2 | d4- x4 | A4 F2 x2 | d6 x2 | e6 x2 | d4- x4 | A4 F2 x2 | E6 x2 | D6 || x2 | (F4- D2) D3/2 x/ | %20
w: |cue|me, yes,|O|sus,|Poor|me. There’s|light|in||For * me,|
w: |tion,|me, yes|Great|iot|Take|me. There’s|light|in||For * me,|
w: |sus,|now, just|O|ther,|Come|now. There’s|light|in||For * you,|
w: |you|now, yes|For|sus|Just|now. There’s|light|in||For * you,|
 x2 A4 x2 | F4 x4 | E4 x4 | (F4- D2) D3/2 x/ | x2 A4 x2 | E6 x2 | D4 x2 || %27
w: |light|val-|me, * for||||
w: |light|val-|me, * for||||
w: |light|val-|you, * for||||
w: |light|val-|you, * for||||
V:3
 z2 | z2 [D,A,]>[D,A,] (A,>G,) [D,F,]>[D,G,] | [D,F,]<[D,F,] [D,F,][D,G,] [D,A,]<[D,A,] z2 | %3
w: |There’s a light * ~ ~|~ in the val- ley, For|
 z2 [D,A,]2 [D,A,]2 z2 | z2 [A,,A,]2 [A,,A,]2 z2 | z2 [D,A,]>[D,A,] (A,>G,) [D,F,]>[D,G,] | %6
w: me, for|me; There’s|a light ~ * ~ ~|
 [D,F,]<[D,F,] [D,F,][D,G,] [D,A,]<[D,A,] z2 | z2 [A,,A,]2 [A,,G,]2 z2 | z2 [D,G,]2 [D,F,]2 || z2 | %10
w: in the val- ley, For me,|for me;|||
 z2 [D,A,]2 [D,A,]>[D,D] [G,D]>[B,D] | D>D [D,D]>[D,D] [D,A,]>[D,A,] z2 | z2 [D,D]2 [D,D]2 z2 | %13
w: |||
 z2 [A,C]2 [A,C]2 z2 | z2 [D,D]2 [D,A,]>[D,D] [G,D]>[B,D] | D>D [D,D]>[D,D] [D,A,]>[D,A,] z2 | %16
w: |||
 z2 [A,,A,]2 [A,,G,]2 z2 | z2 [D,G,]2 [D,F,]2 || z2 | z2 [D,A,]>[D,A,] A,>G, [D,F,]>[D,G,] | %20
w: ||||
 [D,F,]<[D,F,] [D,F,][D,G,] [D,A,]<[D,A,] z2 | z2 [D,A,]2 [D,A,]2 z2 | z2 [A,,A,]2 [A,,A,]2 z2 | %23
w: |||
 z2 [D,A,]>[D,A,] A,>G, [D,F,]>[D,G,] | [D,F,]<[D,F,] [D,F,][D,G,] [D,A,]<[D,A,] z2 | %25
w: ||
 z2 [A,,A,]2 [A,,G,]2 z2 | z2 [D,G,]2 [D,F,]2 || %27
w: ||
V:4
 x2 | x4 D,2 x2 | x8 | x8 | x8 | x4 D,2 x2 | x8 | x8 | x6 || x2 | x8 | D>D x6 | x8 | x8 | x8 | %15
w: |~||||~||||||||||
 D>D x6 | x8 | x6 || x2 | x4 D,2 x2 | x8 | x8 | x8 | x4 D,2 x2 | x8 | x8 | x6 || %27
w: ||||||||||||

